;FLAVOR:Marlin
;TIME:1148
;Filament used: 0.36105m
;Layer height: 0.1
;Generated with Cura_SteamEngine 3.2.1
M190 S110
M104 S235
M109 S235
M82 ;absolute extrusion mode
G21   ; Metric values
G90   ; Absolute positioning
;M83   ; Set extruder to Relative mode
M107  ; Start with the fan off
;M141 S30 ; Chamber 30c
G28   ; Home All
G1 X15 Y0 F6000 ;move X/Y to Front-Left
G32   ; Run 3-point probe for Autolevel
G1 X15 Y0 F6000 ;move X/Y to Front-Left
G92 E0       ;zero the extruded length
G1 F150 E25  ;Extrude 25mm filament
G92 E0       ;zero the extruded length
M83 ;relative extrusion mode
;LAYER_COUNT:5
;LAYER:0
M107
G0 F3600 X29.859 Y63.757 Z0.11
;TYPE:SKIRT
G1 F2400 X30.706 Y63.381 E0.01271
G1 X31.583 Y63.079 E0.01273
G1 X32.482 Y62.854 E0.01271
G1 X33.621 Y62.683 E0.0158
G1 X36.798 Y62.38 E0.04379
G1 X41.861 Y61.667 E0.07015
G1 X46.875 Y60.669 E0.07014
G1 X49.224 Y60.097 E0.03317
G1 X51.62 Y59.443 E0.03408
G1 X56.51 Y57.878 E0.07044
G1 X61.281 Y56.049 E0.0701
G1 X63.493 Y55.091 E0.03307
G1 X66.802 Y53.521 E0.05025
G1 X71.899 Y50.787 E0.07935
G1 X72.734 Y50.384 E0.01272
G1 X73.601 Y50.055 E0.01272
G1 X74.493 Y49.802 E0.01272
G1 X75.403 Y49.626 E0.01272
G1 X76.325 Y49.53 E0.01272
G1 X76.85 Y49.511 E0.00721
G1 X84.395 Y49.42 E0.10352
G1 X84.64 Y49.42 E0.00336
G1 X92.645 Y49.506 E0.10983
G1 X98.31 Y49.348 E0.07775
G1 X98.747 Y49.345 E0.006
G1 X103.822 Y49.41 E0.06963
G1 X108.895 Y49.345 E0.06961
G1 X109.23 Y49.346 E0.0046
G1 X115.875 Y49.468 E0.09118
G1 X120.2 Y49.413 E0.05934
G1 X120.408 Y49.412 E0.00285
G1 X135.092 Y49.511 E0.20147
G1 X136.018 Y49.557 E0.01272
G1 X136.937 Y49.683 E0.01273
G1 X137.841 Y49.888 E0.01272
G1 X138.725 Y50.17 E0.01273
G1 X139.58 Y50.526 E0.01271
G1 X140.402 Y50.955 E0.01272
G1 X140.928 Y51.28 E0.00848
G1 X145.724 Y54.435 E0.07876
G1 X150.093 Y56.954 E0.06919
G1 X154.604 Y59.227 E0.0693
G1 X159.194 Y61.225 E0.06868
G1 X165.658 Y63.562 E0.0943
G1 X166.516 Y63.914 E0.01272
G1 X167.046 Y64.178 E0.00812
G1 X167.558 Y64.45 E0.00795
G1 X168.358 Y64.919 E0.01272
G1 X169.113 Y65.456 E0.01271
G1 X169.82 Y66.057 E0.01273
G1 X170.186 Y66.411 E0.00699
G1 X170.565 Y66.797 E0.00742
G1 X171.185 Y67.486 E0.01272
G1 X171.744 Y68.226 E0.01272
G1 X172.237 Y69.012 E0.01273
G1 X172.558 Y69.62 E0.00943
G1 X173.245 Y71.03 E0.02152
G1 X173.615 Y71.881 E0.01273
G1 X173.91 Y72.76 E0.01272
G1 X174.128 Y73.661 E0.01272
G1 X174.268 Y74.577 E0.01271
G1 X174.328 Y75.502 E0.01272
G1 X174.309 Y76.429 E0.01272
G1 X174.209 Y77.351 E0.01272
G1 X174.031 Y78.261 E0.01272
G1 X173.775 Y79.152 E0.01272
G1 X173.443 Y80.018 E0.01272
G1 X173.037 Y80.851 E0.01271
G1 X172.793 Y81.279 E0.00676
G1 X171.434 Y83.539 E0.03618
G1 X168.839 Y88.294 E0.07432
G1 X168.361 Y89.087 E0.0127
G1 X168.002 Y89.595 E0.00853
G1 X166.112 Y92.115 E0.04322
G1 X163.222 Y96.335 E0.07017
G1 X160.607 Y100.662 E0.06936
G1 X158.246 Y105.117 E0.06917
G1 X156.135 Y109.714 E0.0694
G1 X154.291 Y114.409 E0.0692
G1 X152.708 Y119.225 E0.06955
G1 X151.749 Y122.687 E0.04929
G1 X151.463 Y123.569 E0.01272
G1 X151.102 Y124.423 E0.01272
G1 X150.669 Y125.243 E0.01272
G1 X150.167 Y126.023 E0.01273
G1 X149.6 Y126.756 E0.01271
G1 X148.971 Y127.438 E0.01273
G1 X148.286 Y128.062 E0.01271
G1 X147.55 Y128.626 E0.01272
G1 X146.768 Y129.124 E0.01272
G1 X145.557 Y129.726 E0.01855
G1 X141.4 Y131.475 E0.06188
G1 X136.826 Y133.67 E0.06961
G1 X131.746 Y136.487 E0.0797
G1 X130.917 Y136.902 E0.01272
G1 X130.055 Y137.243 E0.01272
G1 X129.166 Y137.509 E0.01273
G1 X128.258 Y137.697 E0.01272
G1 X127.046 Y137.824 E0.01672
G1 X120.018 Y138.16 E0.09653
G1 X115.004 Y138.693 E0.06918
G1 X110.02 Y139.509 E0.06929
G1 X105.083 Y140.607 E0.06939
G1 X99.994 Y142.005 E0.07241
G1 X98.732 Y142.271 E0.01769
G1 X97.305 Y142.484 E0.0198
G1 X96.214 Y142.591 E0.01504
G1 X94.785 Y142.657 E0.01963
G1 X94.285 Y142.668 E0.00686
G1 X76.939 Y142.662 E0.23798
G1 X76.013 Y142.622 E0.01272
G1 X75.094 Y142.502 E0.01272
G1 X74.188 Y142.303 E0.01273
G1 X73.303 Y142.027 E0.01272
G1 X72.445 Y141.676 E0.01272
G1 X71.62 Y141.252 E0.01273
G1 X70.835 Y140.758 E0.01273
G1 X70.432 Y140.466 E0.00683
G1 X68.352 Y138.883 E0.03586
G1 X64.147 Y135.955 E0.0703
G1 X59.855 Y133.315 E0.06913
G1 X55.104 Y130.751 E0.07407
G1 X54.308 Y130.276 E0.01272
G1 X53.556 Y129.734 E0.01272
G1 X52.853 Y129.129 E0.01272
G1 X52.205 Y128.466 E0.01272
G1 X51.616 Y127.75 E0.01272
G1 X51.328 Y127.348 E0.00678
G1 X48.154 Y122.695 E0.07728
G1 X45.087 Y118.67 E0.06943
G1 X41.813 Y114.847 E0.06906
G1 X38.256 Y111.136 E0.07053
G1 X36.543 Y109.494 E0.03256
G1 X32.715 Y106.128 E0.06994
G1 X28.031 Y102.477 E0.08148
G1 X27.325 Y101.876 E0.01272
G1 X26.673 Y101.216 E0.01273
G1 X26.081 Y100.503 E0.01271
G1 X25.431 Y99.546 E0.01587
G1 X23.2 Y95.843 E0.05931
G1 X22.756 Y95.029 E0.01272
G1 X22.384 Y94.179 E0.01273
G1 X22.087 Y93.301 E0.01272
G1 X21.866 Y92.401 E0.01271
G1 X21.724 Y91.485 E0.01272
G1 X21.661 Y90.559 E0.01273
G1 X21.678 Y89.633 E0.01271
G1 X21.839 Y88.33 E0.01801
G1 X22.925 Y82.488 E0.08152
G1 X23.557 Y77.446 E0.06972
G1 X23.92 Y72.584 E0.06689
G1 X24.029 Y71.663 E0.01272
G1 X24.217 Y70.755 E0.01272
G1 X24.482 Y69.867 E0.01271
G1 X24.823 Y69.005 E0.01272
G1 X25.237 Y68.175 E0.01273
G1 X25.721 Y67.384 E0.01272
G1 X26.271 Y66.638 E0.01272
G1 X26.883 Y65.942 E0.01272
G1 X27.554 Y65.301 E0.01273
G1 X28.276 Y64.721 E0.01271
G1 X29.047 Y64.205 E0.01273
G1 X29.859 Y63.757 E0.01272
G0 F3600 X30.131 Y63.958
G1 F2400 X30.972 Y63.6 E0.01254
G1 X31.841 Y63.317 E0.01254
G1 X32.731 Y63.111 E0.01253
G1 X33.649 Y62.982 E0.01272
G1 X36.826 Y62.68 E0.04378
G1 X41.907 Y61.964 E0.0704
G1 X46.937 Y60.963 E0.07036
G1 X49.336 Y60.378 E0.03388
G1 X51.695 Y59.734 E0.03355
G1 X56.609 Y58.162 E0.07078
G1 X61.384 Y56.331 E0.07016
G1 X63.63 Y55.358 E0.03358
G1 X66.93 Y53.792 E0.05011
G1 X72.041 Y51.051 E0.07957
G1 X72.865 Y50.654 E0.01255
G1 X73.72 Y50.332 E0.01253
G1 X74.6 Y50.085 E0.01254
G1 X75.498 Y49.916 E0.01254
G1 X76.854 Y49.811 E0.01866
G1 X84.399 Y49.72 E0.10352
G1 X84.637 Y49.72 E0.00327
G1 X92.65 Y49.806 E0.10994
G1 X98.318 Y49.648 E0.07779
G1 X98.743 Y49.645 E0.00583
G1 X103.822 Y49.71 E0.06969
G1 X108.899 Y49.645 E0.06966
G1 X109.225 Y49.646 E0.00447
G1 X115.873 Y49.768 E0.09122
G1 X120.203 Y49.713 E0.05941
G1 X120.406 Y49.712 E0.00279
G1 X135.09 Y49.811 E0.20147
G1 X136.003 Y49.857 E0.01254
G1 X136.909 Y49.983 E0.01255
G1 X137.8 Y50.188 E0.01254
G1 X138.669 Y50.469 E0.01253
G1 X139.511 Y50.825 E0.01254
G1 X140.319 Y51.254 E0.01255
G1 X140.763 Y51.53 E0.00717
G1 X145.575 Y54.696 E0.07903
G1 X149.949 Y57.218 E0.06927
G1 X154.476 Y59.499 E0.06955
G1 X159.081 Y61.503 E0.0689
G1 X165.556 Y63.844 E0.09446
G1 X166.401 Y64.192 E0.01254
G1 X166.906 Y64.442 E0.00773
G1 X167.418 Y64.714 E0.00795
G1 X168.205 Y65.178 E0.01253
G1 X168.95 Y65.709 E0.01255
G1 X169.972 Y66.622 E0.0188
G1 X170.351 Y67.008 E0.00742
G1 X170.962 Y67.687 E0.01253
G1 X171.511 Y68.418 E0.01254
G1 X171.995 Y69.193 E0.01254
G1 X172.288 Y69.752 E0.00866
G1 X172.975 Y71.162 E0.02152
G1 X173.339 Y72 E0.01253
G1 X173.629 Y72.867 E0.01254
G1 X173.841 Y73.756 E0.01254
G1 X173.975 Y74.661 E0.01255
G1 X174.03 Y75.573 E0.01254
G1 X174.004 Y76.487 E0.01254
G1 X173.899 Y77.395 E0.01254
G1 X173.715 Y78.29 E0.01254
G1 X173.453 Y79.166 E0.01254
G1 X173.116 Y80.016 E0.01254
G1 X172.536 Y81.125 E0.01717
G1 X171.171 Y83.395 E0.03634
G1 X168.576 Y88.15 E0.07432
G1 X168.103 Y88.932 E0.01254
G1 X167.762 Y89.415 E0.00811
G1 X165.878 Y91.927 E0.04308
G1 X162.962 Y96.185 E0.0708
G1 X160.345 Y100.515 E0.06941
G1 X157.976 Y104.986 E0.06942
G1 X155.864 Y109.585 E0.06943
G1 X154.006 Y114.317 E0.06975
G1 X152.422 Y119.133 E0.06956
G1 X151.46 Y122.607 E0.04946
G1 X151.177 Y123.477 E0.01255
G1 X150.82 Y124.318 E0.01253
G1 X150.391 Y125.125 E0.01254
G1 X149.892 Y125.891 E0.01254
G1 X149.329 Y126.611 E0.01254
G1 X148.705 Y127.279 E0.01254
G1 X148.025 Y127.89 E0.01254
G1 X147.294 Y128.439 E0.01254
G1 X146.518 Y128.922 E0.01254
G1 X145.441 Y129.449 E0.01645
G1 X141.289 Y131.196 E0.0618
G1 X136.692 Y133.402 E0.06996
G1 X131.601 Y136.225 E0.07987
G1 X130.783 Y136.633 E0.01254
G1 X129.932 Y136.968 E0.01255
G1 X129.055 Y137.227 E0.01255
G1 X128.159 Y137.409 E0.01254
G1 X127.032 Y137.524 E0.01554
G1 X119.988 Y137.861 E0.09675
G1 X114.976 Y138.394 E0.06915
G1 X109.961 Y139.215 E0.06972
G1 X104.996 Y140.318 E0.06978
G1 X99.914 Y141.715 E0.07231
G1 X98.688 Y141.974 E0.01719
G1 X97.261 Y142.187 E0.0198
G1 X96.2 Y142.291 E0.01463
G1 X94.771 Y142.357 E0.01963
G1 X94.285 Y142.368 E0.00667
G1 X76.939 Y142.362 E0.23798
G1 X76.026 Y142.322 E0.01254
G1 X75.12 Y142.202 E0.01254
G1 X74.228 Y142.003 E0.01254
G1 X73.356 Y141.727 E0.01255
G1 X72.512 Y141.376 E0.01254
G1 X71.702 Y140.953 E0.01254
G1 X70.614 Y140.227 E0.01795
G1 X68.534 Y138.644 E0.03586
G1 X64.322 Y135.711 E0.07042
G1 X59.993 Y133.048 E0.06973
G1 X55.247 Y130.487 E0.07399
G1 X54.462 Y130.018 E0.01255
G1 X53.721 Y129.482 E0.01255
G1 X53.03 Y128.884 E0.01254
G1 X52.394 Y128.227 E0.01255
G1 X51.576 Y127.179 E0.01824
G1 X48.394 Y122.514 E0.07747
G1 X45.325 Y118.487 E0.06947
G1 X42.029 Y114.637 E0.06953
G1 X38.48 Y110.936 E0.07035
G1 X36.749 Y109.276 E0.0329
G1 X32.902 Y105.893 E0.07029
G1 X28.215 Y102.24 E0.08153
G1 X27.519 Y101.647 E0.01254
G1 X26.878 Y100.996 E0.01253
G1 X26.296 Y100.291 E0.01254
G1 X25.688 Y99.391 E0.0149
G1 X23.457 Y95.688 E0.05931
G1 X23.02 Y94.885 E0.01254
G1 X22.655 Y94.047 E0.01254
G1 X22.364 Y93.18 E0.01255
G1 X22.15 Y92.291 E0.01255
G1 X22.015 Y91.387 E0.01254
G1 X21.96 Y90.475 E0.01254
G1 X21.984 Y89.561 E0.01254
G1 X22.134 Y88.385 E0.01627
G1 X23.222 Y82.53 E0.0817
G1 X23.854 Y77.485 E0.06976
G1 X24.219 Y72.606 E0.06713
G1 X24.327 Y71.699 E0.01253
G1 X24.514 Y70.804 E0.01254
G1 X24.778 Y69.929 E0.01254
G1 X25.118 Y69.08 E0.01255
G1 X25.531 Y68.264 E0.01255
G1 X26.013 Y67.488 E0.01253
G1 X26.561 Y66.757 E0.01253
G1 X27.171 Y66.076 E0.01254
G1 X27.839 Y65.451 E0.01255
G1 X28.558 Y64.887 E0.01254
G1 X29.324 Y64.388 E0.01254
G1 X30.131 Y63.958 E0.01255
G0 F3600 X30.402 Y64.162
G1 F2400 X31.236 Y63.823 E0.01235
G1 X32.097 Y63.559 E0.01236
G1 X32.979 Y63.372 E0.01237
G1 X33.678 Y63.281 E0.00967
G1 X36.851 Y62.979 E0.04373
G1 X41.955 Y62.26 E0.07072
G1 X47.016 Y61.253 E0.0708
G1 X49.379 Y60.677 E0.03337
G1 X51.799 Y60.016 E0.03442
G1 X56.697 Y58.449 E0.07055
G1 X61.515 Y56.602 E0.07079
G1 X63.731 Y55.642 E0.03313
G1 X67.067 Y54.059 E0.05066
G1 X72.183 Y51.315 E0.07965
G1 X72.995 Y50.925 E0.01236
G1 X73.838 Y50.609 E0.01235
G1 X74.706 Y50.368 E0.01236
G1 X75.592 Y50.205 E0.01236
G1 X76.858 Y50.111 E0.01742
G1 X84.403 Y50.02 E0.10352
G1 X84.634 Y50.02 E0.00317
G1 X92.655 Y50.106 E0.11005
G1 X98.327 Y49.948 E0.07785
G1 X98.739 Y49.945 E0.00565
G1 X103.822 Y50.01 E0.06974
G1 X108.903 Y49.945 E0.06972
G1 X109.219 Y49.946 E0.00434
G1 X115.871 Y50.068 E0.09128
G1 X120.207 Y50.013 E0.05949
G1 X120.404 Y50.012 E0.0027
G1 X135.088 Y50.111 E0.20147
G1 X135.988 Y50.157 E0.01236
G1 X136.88 Y50.283 E0.01236
G1 X137.758 Y50.487 E0.01237
G1 X138.614 Y50.768 E0.01236
G1 X139.441 Y51.124 E0.01235
G1 X140.598 Y51.781 E0.01825
G1 X145.415 Y54.949 E0.0791
G1 X149.805 Y57.481 E0.06953
G1 X154.347 Y59.77 E0.06978
G1 X158.967 Y61.781 E0.06913
G1 X165.454 Y64.126 E0.09464
G1 X166.287 Y64.469 E0.01236
G1 X166.765 Y64.707 E0.00733
G1 X167.277 Y64.979 E0.00795
G1 X168.053 Y65.437 E0.01236
G1 X168.785 Y65.961 E0.01235
G1 X169.758 Y66.832 E0.01792
G1 X170.137 Y67.218 E0.00742
G1 X170.739 Y67.888 E0.01236
G1 X171.279 Y68.609 E0.01236
G1 X171.753 Y69.375 E0.01236
G1 X172.019 Y69.883 E0.00787
G1 X172.706 Y71.293 E0.02152
G1 X173.064 Y72.12 E0.01236
G1 X173.347 Y72.975 E0.01236
G1 X173.554 Y73.852 E0.01236
G1 X173.682 Y74.744 E0.01236
G1 X173.731 Y75.643 E0.01235
G1 X173.699 Y76.543 E0.01236
G1 X173.588 Y77.437 E0.01236
G1 X173.398 Y78.318 E0.01237
G1 X173.131 Y79.178 E0.01235
G1 X172.788 Y80.012 E0.01237
G1 X172.279 Y80.97 E0.01488
G1 X170.914 Y83.24 E0.03634
G1 X168.313 Y88.006 E0.07449
G1 X167.846 Y88.777 E0.01237
G1 X167.522 Y89.235 E0.0077
G1 X165.625 Y91.764 E0.04337
G1 X162.718 Y96.009 E0.07059
G1 X160.09 Y100.357 E0.0697
G1 X157.711 Y104.847 E0.06971
G1 X155.585 Y109.476 E0.06989
G1 X153.724 Y114.213 E0.06983
G1 X152.135 Y119.048 E0.06983
G1 X151.171 Y122.527 E0.04953
G1 X150.892 Y123.384 E0.01237
G1 X150.538 Y124.212 E0.01235
G1 X150.112 Y125.006 E0.01236
G1 X149.618 Y125.759 E0.01236
G1 X149.058 Y126.465 E0.01236
G1 X148.439 Y127.119 E0.01235
G1 X147.763 Y127.716 E0.01237
G1 X147.038 Y128.25 E0.01235
G1 X146.268 Y128.717 E0.01236
G1 X145.325 Y129.173 E0.01437
G1 X141.144 Y130.932 E0.06223
G1 X136.563 Y133.13 E0.06971
G1 X131.455 Y135.963 E0.08014
G1 X130.649 Y136.364 E0.01235
G1 X129.81 Y136.693 E0.01236
G1 X128.945 Y136.945 E0.01236
G1 X128.061 Y137.12 E0.01236
G1 X127.018 Y137.224 E0.01438
G1 X119.975 Y137.561 E0.09674
G1 X114.933 Y138.097 E0.06957
G1 X109.9 Y138.921 E0.06997
G1 X104.934 Y140.025 E0.0698
G1 X99.835 Y141.426 E0.07255
G1 X98.643 Y141.678 E0.01672
G1 X97.216 Y141.891 E0.0198
G1 X96.186 Y141.991 E0.0142
G1 X94.757 Y142.057 E0.01963
G1 X94.285 Y142.068 E0.00648
G1 X76.939 Y142.062 E0.23798
G1 X76.04 Y142.022 E0.01235
G1 X75.147 Y141.902 E0.01236
G1 X74.268 Y141.703 E0.01236
G1 X73.41 Y141.427 E0.01237
G1 X72.58 Y141.077 E0.01236
G1 X71.785 Y140.654 E0.01236
G1 X70.795 Y139.989 E0.01636
G1 X68.699 Y138.394 E0.03614
G1 X64.468 Y135.448 E0.07073
G1 X60.159 Y132.797 E0.06941
G1 X55.389 Y130.223 E0.07436
G1 X54.616 Y129.76 E0.01236
G1 X53.887 Y129.231 E0.01236
G1 X53.208 Y128.639 E0.01236
G1 X52.584 Y127.989 E0.01236
G1 X51.824 Y127.01 E0.017
G1 X48.643 Y122.346 E0.07746
G1 X45.554 Y118.293 E0.06992
G1 X42.253 Y114.438 E0.06963
G1 X38.692 Y110.723 E0.0706
G1 X36.954 Y109.058 E0.03302
G1 X33.099 Y105.667 E0.07044
G1 X28.399 Y102.004 E0.08175
G1 X27.714 Y101.419 E0.01236
G1 X27.083 Y100.776 E0.01236
G1 X26.512 Y100.079 E0.01236
G1 X25.945 Y99.236 E0.01394
G1 X23.714 Y95.533 E0.05931
G1 X23.284 Y94.741 E0.01236
G1 X22.925 Y93.915 E0.01236
G1 X22.642 Y93.06 E0.01236
G1 X22.435 Y92.183 E0.01236
G1 X22.307 Y91.291 E0.01236
G1 X22.258 Y90.392 E0.01235
G1 X22.29 Y89.491 E0.01237
G1 X22.429 Y88.44 E0.01455
G1 X23.52 Y82.573 E0.08187
G1 X24.152 Y77.523 E0.06983
G1 X24.518 Y72.629 E0.06733
G1 X24.625 Y71.734 E0.01237
G1 X24.811 Y70.853 E0.01235
G1 X25.074 Y69.991 E0.01236
G1 X25.413 Y69.156 E0.01236
G1 X25.824 Y68.355 E0.01235
G1 X26.305 Y67.593 E0.01236
G1 X26.851 Y66.877 E0.01235
G1 X27.459 Y66.212 E0.01236
G1 X28.123 Y65.603 E0.01236
G1 X28.839 Y65.056 E0.01236
G1 X29.601 Y64.574 E0.01237
G1 X30.402 Y64.162 E0.01236
G1 F3600 E-1.6
G0 F3600 X78.209 Y65.883
;TYPE:WALL-INNER
G1 F3600 E1.6
G1 F2400 X78.359 Y65.883 E0.00206
G1 X79.364 Y65.876 E0.01379
G1 X79.479 Y65.875 E0.00158
G1 X79.758 Y65.832 E0.00387
G1 X79.806 Y65.824 E0.00067
G1 X80.077 Y65.702 E0.00408
G1 X80.298 Y65.502 E0.00409
G1 X80.44 Y65.274 E0.00369
G1 X80.489 Y65.133 E0.00205
G1 X80.507 Y65.08 E0.00077
G1 X80.565 Y64.914 E0.00241
G1 X80.613 Y64.777 E0.00199
G1 X80.594 Y64.725 E0.00076
G1 X80.552 Y64.608 E0.00171
G1 X80.64 Y64.707
G1 X80.664 Y64.746
G1 X80.707 Y64.817
G1 X80.757 Y64.979 E0.00002
G1 X80.788 Y65.176 E0.00223
G1 X80.774 Y65.231 E0.00077
G1 X80.68 Y65.578 E0.00493
G1 X80.63 Y65.716 E0.00201
G1 X80.554 Y65.871 E0.00237
G1 X80.495 Y65.945 E0.0013
G1 X80.422 Y65.996 E0.00122
G1 X80.334 Y66.035 E0.00132
G1 X80.242 Y66.063 E0.00132
G1 X80.082 Y66.097 E0.00224
G1 X79.947 Y66.118 E0.00187
G1 X79.782 Y66.132 E0.00227
G1 X79.501 Y66.154 E0.00373
G1 X79.366 Y66.166 E0.00177
G1 X78.209 Y66.166 E0.01587
G1 X77.727 Y66.166 E0.00661
G1 X77.727 Y61 E0.07088
G1 X78.209 Y61 E0.00661
G1 X78.209 Y65.733 E0.06494
G1 X78.209 Y65.883 E0.00133
G1 F3600 E-1.6
G0 F3600 X80.173 Y63.403
G1 F3600 E1.6
G1 F2400 X80.021 Y63.796 E0.00578
G1 X80.021 Y63.346 E0.00189
G1 X80.211 Y63.303 E0.00267
G1 X80.173 Y63.403
G1 F3600 E-1.6
G0 F3600 X80.915 Y62.391
G1 F3600 E1.6
G1 F2400 X80.907 Y62.318 E0.00101
G1 X80.891 Y62.177 E0.00195
G1 X80.872 Y62.011 E0.00229
G1 X80.851 Y61.955 E0.00082
G1 X80.812 Y61.856 E0.00146
G1 X80.78 Y61.774 E0.00121
G1 X80.769 Y61.758 E0.00027
G1 X80.693 Y61.656 E0.00175
G1 X80.649 Y61.597 E0.00101
G1 X80.438 Y61.393 E0.00403
