;FLAVOR:Marlin
;TIME:394
;Filament used: 0.201286m
;Layer height: 0.2
;Generated with Cura_SteamEngine 3.2.1
M190 S110
M104 S235
M109 S235
M82 ;absolute extrusion mode
G21   ; Metric values
G90   ; Absolute positioning
;M83   ; Set extruder to Relative mode
M107  ; Start with the fan off
;M141 S30 ; Chamber 30c
G28   ; Home All
G1 X15 Y0 F6000 ;move X/Y to Front-Left
G32   ; Run 3-point probe for Autolevel
G1 X15 Y0 F6000 ;move X/Y to Front-Left
G92 E0       ;zero the extruded length
G1 F150 E25  ;Extrude 25mm filament
G92 E0       ;zero the extruded length
M83 ;relative extrusion mode
;LAYER_COUNT:3
;LAYER:0
M107
G0 F3600 X22.801 Y83.589 Z0.2
;TYPE:SKIRT
G1 F2400 X23.705 Y83.385 E0.02312
G1 X24.624 Y83.26 E0.02314
G1 X25.664 Y83.215 E0.02597
G1 X31.707 Y83.244 E0.15074
G1 X31.969 Y83.249 E0.00654
G1 X37.298 Y83.404 E0.13299
G1 X44.414 Y83.2 E0.17758
G1 X44.728 Y83.196 E0.00783
G1 X59.826 Y83.203 E0.37662
G1 X60.396 Y83.218 E0.01422
G1 X62.453 Y83.328 E0.05139
G1 X67.606 Y83.402 E0.12856
G1 X72.388 Y83.217 E0.11938
G1 X72.783 Y83.209 E0.00986
G1 X102.756 Y83.153 E0.74768
G1 X108.786 Y82.893 E0.15056
G1 X109.743 Y82.894 E0.02387
G1 X116.339 Y83.197 E0.16471
G1 X121.95 Y83.193 E0.13997
G1 X122.473 Y83.205 E0.01305
G1 X130.093 Y83.571 E0.1903
G1 X135.174 Y83.529 E0.12675
G1 X140.345 Y83.215 E0.12923
G1 X140.996 Y83.195 E0.01625
G1 X155.284 Y83.194 E0.35642
G1 X155.457 Y83.195 E0.00432
G1 X162.281 Y83.304 E0.17025
G1 X167.575 Y83.304 E0.13206
G1 X172.748 Y83.06 E0.12918
G1 X173.575 Y83.053 E0.02063
G1 X179.795 Y83.238 E0.15523
G1 X186.823 Y83.203 E0.17532
G1 X187.75 Y83.238 E0.02314
G1 X188.496 Y83.326 E0.01874
G1 X189.704 Y83.51 E0.03048
G1 X190.613 Y83.689 E0.02311
G1 X191.504 Y83.945 E0.02313
G1 X192.37 Y84.278 E0.02314
G1 X193.357 Y84.769 E0.0275
G1 X193.883 Y85.065 E0.01506
G1 X194.671 Y85.554 E0.02313
G1 X195.413 Y86.109 E0.02311
G1 X196.105 Y86.726 E0.02313
G1 X196.776 Y87.44 E0.02444
G1 X197.11 Y87.83 E0.01281
G1 X197.682 Y88.56 E0.02313
G1 X198.289 Y89.507 E0.02806
G1 X198.677 Y90.189 E0.01957
G1 X199.1 Y91.014 E0.02313
G1 X199.451 Y91.872 E0.02312
G1 X199.726 Y92.758 E0.02314
G1 X199.924 Y93.663 E0.02311
G1 X200.043 Y94.583 E0.02314
G1 X200.083 Y95.509 E0.02312
G1 X200.043 Y96.435 E0.02312
G1 X199.911 Y97.418 E0.02474
G1 X198.992 Y102.501 E0.12885
G1 X198.735 Y103.595 E0.02803
G1 X197.598 Y107.497 E0.10138
G1 X197.3 Y108.375 E0.02313
G1 X196.928 Y109.225 E0.02315
G1 X196.484 Y110.039 E0.02313
G1 X195.972 Y110.811 E0.02311
G1 X195.395 Y111.537 E0.02313
G1 X194.758 Y112.21 E0.02312
G1 X194.064 Y112.826 E0.02315
G1 X193.321 Y113.38 E0.02312
G1 X192.532 Y113.868 E0.02314
G1 X191.705 Y114.286 E0.02312
G1 X190.844 Y114.631 E0.02314
G1 X189.957 Y114.901 E0.02313
G1 X189.05 Y115.093 E0.02313
G1 X188.021 Y115.214 E0.02585
G1 X185.243 Y115.407 E0.06946
G1 X180.129 Y115.986 E0.12838
G1 X175.123 Y116.842 E0.12669
G1 X169.278 Y118.123 E0.14926
G1 X168.365 Y118.282 E0.02312
G1 X167.331 Y118.366 E0.02588
G1 X165.451 Y118.428 E0.04692
G1 X165.059 Y118.434 E0.00978
G1 X153.944 Y118.395 E0.27727
G1 X152.94 Y118.344 E0.02508
G1 X148.182 Y117.88 E0.11925
G1 X143.142 Y117.668 E0.12583
G1 X138.117 Y117.74 E0.12536
G1 X129.694 Y118.392 E0.21074
G1 X128.848 Y118.424 E0.02112
G1 X107.576 Y118.391 E0.53063
G1 X106.65 Y118.35 E0.02312
G1 X105.939 Y118.263 E0.01787
G1 X101.139 Y117.516 E0.12118
G1 X96.106 Y117.014 E0.12617
G1 X91.07 Y116.798 E0.12574
G1 X86.01 Y116.869 E0.12623
G1 X80.999 Y117.221 E0.12531
G1 X75.873 Y117.876 E0.12891
G1 X73.454 Y118.28 E0.06118
G1 X72.533 Y118.393 E0.02315
G1 X71.673 Y118.427 E0.02147
G1 X58.871 Y118.418 E0.31935
G1 X58.012 Y118.383 E0.02145
G1 X54.687 Y118.114 E0.08321
G1 X49.552 Y117.894 E0.12821
G1 X44.505 Y117.965 E0.12591
G1 X38.783 Y118.366 E0.14309
G1 X38.059 Y118.392 E0.01807
G1 X25.602 Y118.424 E0.31074
G1 X24.675 Y118.386 E0.02314
G1 X23.756 Y118.269 E0.02311
G1 X22.849 Y118.073 E0.02315
G1 X21.963 Y117.8 E0.02313
G1 X21.104 Y117.451 E0.02313
G1 X20.279 Y117.029 E0.02312
G1 X19.492 Y116.538 E0.02314
G1 X18.751 Y115.981 E0.02312
G1 X18.061 Y115.362 E0.02312
G1 X17.426 Y114.686 E0.02314
G1 X16.852 Y113.958 E0.02313
G1 X16.399 Y113.276 E0.02042
G1 X14.897 Y110.816 E0.0719
G1 X14.448 Y110.005 E0.02312
G1 X14.071 Y109.158 E0.02313
G1 X13.769 Y108.281 E0.02314
G1 X13.543 Y107.382 E0.02312
G1 X13.395 Y106.467 E0.02312
G1 X13.327 Y105.542 E0.02314
G1 X13.339 Y104.615 E0.02313
G1 X13.499 Y103.273 E0.03371
G1 X13.829 Y101.474 E0.04562
G1 X14.576 Y96.329 E0.12969
G1 X14.914 Y92.909 E0.08573
G1 X15.045 Y91.991 E0.02313
G1 X15.254 Y91.088 E0.02312
G1 X15.541 Y90.206 E0.02314
G1 X15.902 Y89.352 E0.02313
G1 X16.336 Y88.533 E0.02312
G1 X16.838 Y87.754 E0.02312
G1 X17.406 Y87.021 E0.02313
G1 X18.035 Y86.339 E0.02314
G1 X18.72 Y85.715 E0.02311
G1 X19.457 Y85.152 E0.02313
G1 X20.239 Y84.654 E0.02313
G1 X21.061 Y84.226 E0.02312
G1 X21.917 Y83.87 E0.02313
G1 X22.801 Y83.589 E0.02314
G0 F3600 X23.053 Y83.833
G1 F2400 X23.949 Y83.648 E0.02282
G1 X24.857 Y83.542 E0.0228
G1 X25.662 Y83.515 E0.02009
G1 X31.705 Y83.544 E0.15074
G1 X31.96 Y83.548 E0.00636
G1 X37.315 Y83.704 E0.13364
G1 X44.423 Y83.5 E0.17738
G1 X44.728 Y83.496 E0.00761
G1 X59.826 Y83.503 E0.37662
G1 X60.38 Y83.518 E0.01382
G1 X62.432 Y83.628 E0.05126
G1 X67.613 Y83.702 E0.12925
G1 X72.399 Y83.517 E0.11948
G1 X72.784 Y83.509 E0.00961
G1 X102.77 Y83.453 E0.74801
G1 X108.799 Y83.193 E0.15053
G1 X109.729 Y83.194 E0.0232
G1 X116.325 Y83.497 E0.16471
G1 X121.95 Y83.493 E0.14032
G1 X122.459 Y83.505 E0.0127
G1 X130.081 Y83.872 E0.19035
G1 X135.176 Y83.829 E0.1271
G1 X140.363 Y83.514 E0.12963
G1 X140.996 Y83.495 E0.0158
G1 X155.284 Y83.494 E0.35642
G1 X155.452 Y83.495 E0.00419
G1 X162.276 Y83.604 E0.17025
G1 X167.59 Y83.604 E0.13256
G1 X172.763 Y83.36 E0.12918
G1 X173.566 Y83.353 E0.02003
G1 X179.788 Y83.538 E0.15528
G1 X186.825 Y83.503 E0.17554
G1 X187.738 Y83.539 E0.02279
G1 X188.451 Y83.622 E0.01791
G1 X189.659 Y83.806 E0.03048
G1 X190.555 Y83.983 E0.02278
G1 X191.433 Y84.238 E0.02281
G1 X192.286 Y84.568 E0.02282
G1 X193.21 Y85.03 E0.02577
G1 X193.736 Y85.326 E0.01506
G1 X194.512 Y85.809 E0.0228
G1 X195.243 Y86.357 E0.02279
G1 X195.924 Y86.968 E0.02282
G1 X196.548 Y87.636 E0.0228
G1 X196.882 Y88.026 E0.01281
G1 X197.446 Y88.745 E0.0228
G1 X198.028 Y89.656 E0.02697
G1 X198.416 Y90.338 E0.01957
G1 X198.833 Y91.151 E0.02279
G1 X199.177 Y91.998 E0.0228
G1 X199.446 Y92.872 E0.02281
G1 X199.637 Y93.765 E0.02278
G1 X199.75 Y94.673 E0.02282
G1 X199.783 Y95.586 E0.02279
G1 X199.736 Y96.499 E0.02281
G1 X199.616 Y97.364 E0.02178
G1 X198.697 Y102.447 E0.12885
G1 X198.447 Y103.511 E0.02726
G1 X197.31 Y107.413 E0.10138
G1 X197.016 Y108.279 E0.02281
G1 X196.647 Y109.116 E0.02282
G1 X196.207 Y109.917 E0.0228
G1 X195.699 Y110.676 E0.02278
G1 X195.126 Y111.389 E0.02282
G1 X194.493 Y112.048 E0.02279
G1 X193.805 Y112.65 E0.0228
G1 X193.067 Y113.189 E0.0228
G1 X192.285 Y113.662 E0.0228
G1 X191.464 Y114.065 E0.02281
G1 X190.611 Y114.394 E0.02281
G1 X189.733 Y114.647 E0.02279
G1 X188.836 Y114.823 E0.0228
G1 X188 Y114.915 E0.02098
G1 X185.211 Y115.108 E0.06974
G1 X180.099 Y115.688 E0.12834
G1 X175.051 Y116.551 E0.12775
G1 X169.214 Y117.83 E0.14906
G1 X168.313 Y117.986 E0.02281
G1 X167.321 Y118.066 E0.02483
G1 X165.441 Y118.128 E0.04692
G1 X165.06 Y118.134 E0.00951
G1 X153.945 Y118.095 E0.27727
G1 X152.969 Y118.046 E0.02438
G1 X148.206 Y117.582 E0.11938
G1 X143.132 Y117.368 E0.12668
G1 X138.105 Y117.44 E0.12541
G1 X129.671 Y118.093 E0.21102
G1 X128.849 Y118.124 E0.02052
G1 X107.577 Y118.091 E0.53063
G1 X106.664 Y118.05 E0.0228
G1 X105.985 Y117.967 E0.01706
G1 X101.16 Y117.216 E0.12181
G1 X96.131 Y116.714 E0.12607
G1 X91.078 Y116.498 E0.12616
G1 X86.002 Y116.569 E0.12663
G1 X80.958 Y116.924 E0.12613
G1 X75.835 Y117.578 E0.12883
G1 X73.404 Y117.984 E0.06148
G1 X72.497 Y118.095 E0.02279
G1 X71.674 Y118.127 E0.02055
G1 X58.872 Y118.118 E0.31935
G1 X58.037 Y118.084 E0.02085
G1 X54.699 Y117.814 E0.08354
G1 X49.561 Y117.594 E0.12829
G1 X44.479 Y117.665 E0.12678
G1 X38.762 Y118.066 E0.14296
G1 X38.058 Y118.092 E0.01757
G1 X25.601 Y118.124 E0.31074
G1 X24.688 Y118.086 E0.02279
G1 X23.781 Y117.969 E0.02281
G1 X22.888 Y117.773 E0.02281
G1 X22.016 Y117.5 E0.02279
G1 X21.171 Y117.151 E0.02281
G1 X20.359 Y116.73 E0.02282
G1 X19.588 Y116.24 E0.02279
G1 X18.862 Y115.684 E0.02281
G1 X18.188 Y115.067 E0.02279
G1 X17.57 Y114.393 E0.02281
G1 X17.014 Y113.668 E0.02279
G1 X16.655 Y113.12 E0.01634
G1 X15.153 Y110.66 E0.0719
G1 X14.711 Y109.859 E0.02282
G1 X14.341 Y109.024 E0.02278
G1 X14.045 Y108.159 E0.02281
G1 X13.826 Y107.271 E0.02281
G1 X13.686 Y106.368 E0.02279
G1 X13.625 Y105.456 E0.0228
G1 X13.644 Y104.542 E0.0228
G1 X13.794 Y103.327 E0.03054
G1 X14.121 Y101.544 E0.04522
G1 X14.877 Y96.337 E0.13125
G1 X15.213 Y92.938 E0.0852
G1 X15.342 Y92.034 E0.02278
G1 X15.55 Y91.143 E0.02282
G1 X15.835 Y90.275 E0.02279
G1 X16.195 Y89.435 E0.0228
G1 X16.627 Y88.629 E0.02281
G1 X17.128 Y87.864 E0.02281
G1 X17.693 Y87.146 E0.02279
G1 X18.32 Y86.48 E0.02282
G1 X19.002 Y85.872 E0.02279
G1 X19.734 Y85.325 E0.02279
G1 X20.512 Y84.844 E0.02282
G1 X21.328 Y84.433 E0.02279
G1 X22.178 Y84.095 E0.02282
G1 X23.053 Y83.833 E0.02278
G0 F3600 X23.304 Y84.081
G1 F2400 X24.19 Y83.915 E0.02249
G1 X25.086 Y83.829 E0.02245
G1 X25.661 Y83.815 E0.01435
G1 X31.704 Y83.844 E0.15074
G1 X31.951 Y83.848 E0.00616
G1 X37.314 Y84.004 E0.13384
G1 X44.431 Y83.8 E0.17761
G1 X44.728 Y83.796 E0.00741
G1 X59.826 Y83.803 E0.37662
G1 X60.364 Y83.818 E0.01343
G1 X62.412 Y83.928 E0.05116
G1 X67.62 Y84.002 E0.12993
G1 X72.411 Y83.817 E0.1196
G1 X72.784 Y83.809 E0.00931
G1 X102.759 Y83.753 E0.74773
G1 X108.812 Y83.492 E0.15113
G1 X109.716 Y83.494 E0.02255
G1 X116.312 Y83.797 E0.16471
G1 X121.95 Y83.793 E0.14064
G1 X122.445 Y83.805 E0.01235
G1 X130.07 Y84.172 E0.19043
G1 X135.196 Y84.129 E0.12787
G1 X140.381 Y83.814 E0.12958
G1 X140.996 Y83.795 E0.01535
G1 X155.284 Y83.794 E0.35642
G1 X155.447 Y83.795 E0.00407
G1 X162.271 Y83.904 E0.17025
G1 X167.583 Y83.904 E0.13251
G1 X172.777 Y83.659 E0.12971
G1 X173.557 Y83.652 E0.01946
G1 X179.809 Y83.838 E0.15603
G1 X186.826 Y83.803 E0.17504
G1 X187.726 Y83.839 E0.02247
G1 X188.405 Y83.919 E0.01705
G1 X189.613 Y84.103 E0.03048
G1 X190.497 Y84.278 E0.02248
G1 X191.362 Y84.53 E0.02247
G1 X192.201 Y84.859 E0.02248
G1 X193.063 Y85.291 E0.02405
G1 X193.589 Y85.587 E0.01506
G1 X194.353 Y86.064 E0.02247
G1 X195.073 Y86.606 E0.02248
G1 X195.742 Y87.21 E0.02248
G1 X196.32 Y87.831 E0.02116
G1 X196.654 Y88.221 E0.01281
G1 X197.209 Y88.93 E0.02246
G1 X197.767 Y89.804 E0.02587
G1 X198.155 Y90.486 E0.01957
G1 X198.565 Y91.288 E0.02247
G1 X198.903 Y92.123 E0.02247
G1 X199.165 Y92.985 E0.02247
G1 X199.35 Y93.867 E0.02248
G1 X199.456 Y94.762 E0.02248
G1 X199.482 Y95.662 E0.02246
G1 X199.428 Y96.561 E0.02247
G1 X199.321 Y97.311 E0.0189
G1 X198.402 Y102.394 E0.12885
G1 X198.159 Y103.428 E0.0265
G1 X197.022 Y107.33 E0.10138
G1 X196.732 Y108.182 E0.02245
G1 X196.367 Y109.006 E0.02248
G1 X195.931 Y109.794 E0.02246
G1 X195.426 Y110.541 E0.02249
G1 X194.858 Y111.24 E0.02247
G1 X194.229 Y111.885 E0.02247
G1 X193.546 Y112.472 E0.02247
G1 X192.814 Y112.997 E0.02247
G1 X192.038 Y113.454 E0.02246
G1 X191.224 Y113.841 E0.02248
G1 X190.379 Y114.154 E0.02248
G1 X189.51 Y114.391 E0.02247
G1 X188.623 Y114.55 E0.02248
G1 X187.979 Y114.616 E0.01615
G1 X185.156 Y114.812 E0.07059
G1 X180.067 Y115.389 E0.12776
G1 X175.003 Y116.254 E0.12815
G1 X169.15 Y117.537 E0.14947
G1 X168.262 Y117.69 E0.02248
G1 X167.312 Y117.766 E0.02377
G1 X165.432 Y117.828 E0.04692
G1 X165.061 Y117.834 E0.00926
G1 X153.946 Y117.795 E0.27727
G1 X152.998 Y117.747 E0.02368
G1 X148.229 Y117.282 E0.11953
G1 X143.141 Y117.068 E0.12703
G1 X138.094 Y117.14 E0.12591
G1 X129.648 Y117.794 E0.21132
G1 X128.849 Y117.824 E0.01995
G1 X107.577 Y117.791 E0.53063
G1 X106.677 Y117.75 E0.02247
G1 X106.031 Y117.67 E0.01624
G1 X101.219 Y116.921 E0.12148
G1 X96.155 Y116.416 E0.12695
G1 X91.07 Y116.198 E0.12696
G1 X85.994 Y116.269 E0.12663
G1 X80.918 Y116.626 E0.12693
G1 X75.801 Y117.279 E0.12868
G1 X73.355 Y117.688 E0.06186
G1 X72.46 Y117.797 E0.02249
G1 X71.674 Y117.827 E0.01962
G1 X58.872 Y117.818 E0.31935
G1 X58.061 Y117.785 E0.02025
G1 X54.736 Y117.516 E0.08321
G1 X49.553 Y117.294 E0.12941
G1 X44.472 Y117.365 E0.12676
G1 X38.741 Y117.767 E0.14331
G1 X38.057 Y117.792 E0.01707
G1 X25.6 Y117.824 E0.31074
G1 X24.7 Y117.786 E0.02247
G1 X23.807 Y117.669 E0.02247
G1 X22.927 Y117.473 E0.02249
G1 X22.069 Y117.2 E0.02246
G1 X21.238 Y116.851 E0.02248
G1 X20.442 Y116.431 E0.02245
G1 X19.685 Y115.941 E0.02249
G1 X18.975 Y115.386 E0.02248
G1 X18.318 Y114.771 E0.02245
G1 X17.717 Y114.1 E0.02247
G1 X17.178 Y113.378 E0.02248
G1 X16.911 Y112.963 E0.01231
G1 X15.409 Y110.503 E0.0719
G1 X14.974 Y109.714 E0.02247
G1 X14.611 Y108.89 E0.02246
G1 X14.322 Y108.037 E0.02247
G1 X14.11 Y107.161 E0.02248
G1 X13.977 Y106.27 E0.02247
G1 X13.923 Y105.371 E0.02247
G1 X13.949 Y104.47 E0.02248
G1 X14.089 Y103.382 E0.02736
G1 X14.417 Y101.592 E0.0454
G1 X15.174 Y96.386 E0.13123
G1 X15.511 Y92.968 E0.08568
G1 X15.639 Y92.076 E0.02248
G1 X15.846 Y91.199 E0.02248
G1 X16.13 Y90.344 E0.02247
G1 X16.488 Y89.518 E0.02246
G1 X16.918 Y88.726 E0.02248
G1 X17.417 Y87.976 E0.02247
G1 X17.981 Y87.273 E0.02248
G1 X18.604 Y86.623 E0.02246
G1 X19.283 Y86.03 E0.02249
G1 X20.011 Y85.5 E0.02246
G1 X20.784 Y85.037 E0.02248
G1 X21.594 Y84.644 E0.02246
G1 X22.437 Y84.324 E0.02249
G1 X23.304 Y84.081 E0.02246
G1 F3600 E-1.6
G0 F3600 X28.585 Y94.756
;TYPE:WALL-INNER
G1 F3600 E1.6
G1 F2400 X28.655 Y94.955 E0.00526
G1 X31.513 Y103.014 E0.2133
G1 X31.583 Y103.213 E0.00526
G1 X31.373 Y103.213 E0.0031
G1 X31.371 Y103.213 E0.00005
G1 X29.661 Y103.213 E0.04266
G1 X26.733 Y94.892 E0.22004
G1 X26.663 Y94.693 E0.00526
G1 X26.873 Y94.693 E0.0031
G1 X26.874 Y94.693 E0.00002
G1 X28.585 Y94.693 E0.04268
G1 X30.155 Y94.693 E0.03916
G1 X30.652 Y94.693 E0.0124
G1 X30.923 Y94.703 E0.00676
G1 X31.701 Y94.733 E0.01942
G1 X31.842 Y94.739 E0.00352
G1 X32.112 Y94.759 E0.00675
G1 X32.385 Y94.78 E0.00683
G1 X32.515 Y94.796 E0.00327
G1 X32.954 Y94.851 E0.01104
G1 X33.317 Y94.918 E0.00921
G1 X33.466 Y94.946 E0.00378
G1 X33.511 Y94.957 E0.00116
G1 X34.044 Y95.086 E0.01368
G1 X35.105 Y95.39 E0.02753
G1 X35.607 Y95.608 E0.01365
G1 X36.097 Y95.849 E0.01362
G1 X36.287 Y95.96 E0.00549
G1 X36.486 Y96.092 E0.00596
G1 X36.643 Y96.218 E0.00502
G1 X36.785 Y96.356 E0.00494
G1 X36.894 Y96.487 E0.00425
G1 X36.993 Y96.643 E0.00461
G1 X37.09 Y96.835 E0.00537
G1 X37.167 Y97.028 E0.00518
G1 X37.316 Y97.516 E0.01273
G1 X37.42 Y97.948 E0.01108
G1 X37.358 Y98.435 E0.01225
G1 X37.314 Y98.661 E0.00574
G1 X37.252 Y98.883 E0.00575
G1 X37.155 Y99.138 E0.00681
G1 X37.047 Y99.375 E0.0065
G1 X36.474 Y100.47 E0.03083
G1 X36.473 Y100.471 E0.00004
G1 X36.412 Y100.589 E0.00331
G1 X36.531 Y100.649 E0.00214
G1 X36.902 Y100.836 E0.01036
G1 X37.43 Y101.102 E0.01475
G1 X37.695 Y101.236 E0.00741
G1 X37.794 Y101.286 E0.00277
G1 X38.495 Y101.673 E0.01997
G1 X39.101 Y102.062 E0.01796
G1 X39.714 Y102.499 E0.01878
G1 X40.24 Y102.999 E0.0181
G1 X40.453 Y103.243 E0.00808
G1 X40.61 Y103.472 E0.00693
G1 X40.731 Y103.721 E0.00691
G1 X40.826 Y104.02 E0.00783
G1 X40.902 Y104.364 E0.00879
G1 X40.952 Y104.639 E0.00697
G1 X40.926 Y104.883 E0.00612
G1 X40.877 Y105.218 E0.00845
G1 X40.806 Y105.503 E0.00733
G1 X40.728 Y105.688 E0.00501
G1 X40.676 Y105.772 E0.00246
G1 X40.616 Y105.851 E0.00247
G1 X40.409 Y106.063 E0.00739
G1 X40.188 Y106.247 E0.00717
G1 X39.97 Y106.411 E0.00681
G1 X39.289 Y106.656 E0.01805
G1 X38.93 Y106.761 E0.00933
G1 X38.555 Y106.838 E0.00955
G1 X38.184 Y106.886 E0.00933
G1 X37.8 Y106.914 E0.0096
G1 X36.944 Y106.934 E0.02136
G1 X25.985 Y106.934 E0.27337
G1 X25.537 Y106.2 E0.02145
G1 X25.398 Y105.973 E0.00664
G1 X25.664 Y105.973 E0.00374
G1 X25.665 Y105.973 E0.00002
G1 X35.495 Y105.973 E0.24521
G1 X35.946 Y105.963 E0.01125
G1 X36.418 Y105.928 E0.01181
G1 X36.887 Y105.838 E0.01191
G1 X37.15 Y105.751 E0.00691
G1 X37.402 Y105.629 E0.00698
G1 X37.642 Y105.464 E0.00727
G1 X37.853 Y105.262 E0.00729
G1 X38.021 Y105.041 E0.00692
G1 X38.162 Y104.804 E0.00688
G1 X38.348 Y104.378 E0.0116
